icon/lg/zendesk.svg

<?xml version="1.0" encoding="UTF-8"?>
<svg viewBox="0 0 512 99" version="1.1" xmlns="http://www.w3.org/2000/svg" xmlns:xlink="http://www.w3.org/1999/xlink" preserveAspectRatio="xMidYMid" height="1em" width="1em">
  <g>
    <path d="M340.961584,29.1485149 C362.86099,29.1485149 375.280792,45.8772277 374.165545,69.0946535 L322.509307,69.0946535 C323.999059,78.9285647 332.941929,85.864307 342.837228,84.860198 C349.608048,85.0209406 356.161583,82.4652446 361.03604,77.7631683 L370.059406,87.5469307 C362.977742,94.8514422 353.10148,98.7650264 342.938614,98.2938614 C320.887129,98.2938614 306.642376,83.5928713 306.642376,63.7211881 C306.434646,54.5339811 309.975275,45.6579568 316.44932,39.1360969 C322.923366,32.6142369 331.773097,29.0083922 340.961584,29.1485149 Z M104.579802,29.1485149 C126.479208,29.1485149 138.89901,45.8772277 137.783762,69.0946535 L86.1782178,69.0946535 C87.6674312,78.9070506 96.5787298,85.8355853 106.455446,84.860198 C113.226266,85.0209406 119.779801,82.4652446 124.654257,77.7631683 L133.677624,87.5469307 C126.59596,94.8514422 116.719698,98.7650264 106.556832,98.2938614 C84.5053465,98.2938614 70.2605941,83.5928713 70.2605941,63.7211881 C70.052864,54.5339811 73.5934926,45.6579568 80.0675383,39.1360969 C86.541584,32.6142369 95.3913152,29.0083922 104.579802,29.1485149 Z M438.089505,41.5683168 L426.27802,48.4625743 C422.967121,43.5447766 417.349288,40.6879261 411.42495,40.9093069 C403.871683,40.9093069 400.01901,44.609901 400.01901,48.8681188 C400.01901,53.1263366 406.102178,54.9512871 415.683168,57.080396 C415.901149,57.1280475 416.119696,57.1761857 416.338702,57.2248822 L416.996983,57.372719 C417.326701,57.4475469 417.657201,57.5237927 417.988114,57.6016988 L418.650378,57.7597964 C418.871242,57.8132813 419.09218,57.8675759 419.313081,57.922752 L419.975564,58.0909963 L419.975564,58.0909963 L420.637168,58.26496 C430.000539,60.7719921 438.900594,65.1304554 438.900594,76.8506931 C438.900594,86.0261386 430.941782,98.3445545 412.08396,98.2431683 C400.244835,99.1117591 388.947982,93.1484378 382.986139,82.8831683 L395.710099,76.039604 C399.133981,82.169848 405.672884,85.8979986 412.692277,85.7219802 C420.651089,85.7219802 424.757228,81.6158416 424.757228,76.9520792 C424.757228,72.2883168 417.051881,70.4633663 408.687525,68.739802 C408.461434,68.6921505 408.235201,68.6439718 408.008922,68.5951966 L407.330044,68.4470118 C407.216907,68.4219929 407.103782,68.3968076 406.990682,68.3714471 L406.312473,68.2171132 C395.807785,65.7902105 385.723564,61.6985347 385.723564,48.969505 C385.723564,38.4760396 395.862178,28.6922772 411.374257,28.6922772 C421.910267,28.0581108 432.021812,32.9316067 438.089505,41.5683168 Z M293.310099,0 L293.310099,96.9251485 L279.217426,96.9251485 L279.217426,87.800396 C273.815622,94.4882172 265.661251,98.3508138 257.064554,98.2944825 C248.051666,98.2173013 239.452131,94.502086 233.218744,87.9918708 C226.985356,81.4816557 223.647082,72.7288995 223.96198,63.7211881 C223.573915,54.680956 226.903443,45.8759156 233.176034,39.3543364 C239.448625,32.8327572 248.117455,29.1631688 257.165941,29.1992079 C265.657317,29.1363675 273.737258,32.8512833 279.217426,39.3378218 L279.217426,0 L293.310099,0 Z M58.2970297,30.7706931 L58.2970297,43.7481188 L18.4522772,84.3025743 L59.0067327,84.3025743 L59.0067327,97.0772277 L0,97.0772277 L0,84.150495 L39.8447525,43.5960396 L0.912475248,43.5960396 L0.912475248,30.7706931 L58.2970297,30.7706931 Z M464.399208,0 L464.399208,63.4677228 L494.257426,30.4158416 L511.391683,30.4158416 L485.487525,58.8546535 L512,96.9251485 L496.133069,96.9251485 L475.551683,67.4724752 L464.399208,79.689505 L464.399208,96.9758416 L450.306535,96.9758416 L450.306535,0 L464.399208,0 Z M182.089505,29.1992079 C198.818218,29.1992079 212.910891,40.0982178 212.910891,58.1449505 L212.910891,58.1449505 L212.910891,96.9251485 L198.412673,96.9251485 L198.412673,59.9192079 C198.412673,49.0708911 193.140594,42.5314851 182.49505,42.5314851 C177.838798,42.1872938 173.270594,43.9313723 170.028437,47.2910697 C166.78628,50.6507671 165.205922,55.2781593 165.715644,59.9192079 L165.715644,59.9192079 L165.715644,96.9251485 L151.369505,96.9251485 L151.369505,58.1449505 C151.369505,40.0982178 165.360792,29.1992079 182.089505,29.1992079 Z M258.990891,42.7342574 C247.400129,42.7342574 238.00396,52.1304264 238.00396,63.7211881 C238.00396,75.3119499 247.400129,84.7081188 258.990891,84.7081188 C270.581653,84.7081188 279.977822,75.3119499 279.977822,63.7211881 C279.977822,52.1304264 270.581653,42.7342574 258.990891,42.7342574 Z M322.458614,57.9928713 L358.602772,58.0435644 C358.111968,48.9029508 350.305064,41.8903539 341.164356,42.3794059 C331.784725,41.8287777 323.593515,48.665885 322.458614,57.9928713 Z M86.1782178,57.9928713 L122.22099,58.0435644 C121.703333,48.9231328 113.904555,41.9405063 104.782574,42.430099 C95.4582604,41.9324646 87.3354713,48.7272772 86.1782178,57.9928713 Z" fill="#03363D"/>
  </g>
</svg>

<svg width="512" height="99" xmlns="http://www.w3.org/2000/svg" preserveAspectRatio="xMidYMid"><path d="M340.962 29.149c21.899 0 34.319 16.728 33.204 39.946h-51.657c1.49 9.834 10.433 16.77 20.328 15.765a25.347 25.347 0 0 0 18.199-7.097l9.023 9.784a35.485 35.485 0 0 1-27.12 10.747c-22.052 0-36.297-14.701-36.297-34.573a33.812 33.812 0 0 1 34.32-34.572Zm-236.382 0c21.9 0 34.319 16.728 33.204 39.946H86.178c1.49 9.812 10.4 16.74 20.277 15.765a25.347 25.347 0 0 0 18.2-7.097l9.023 9.784a35.485 35.485 0 0 1-27.121 10.747c-22.052 0-36.296-14.701-36.296-34.573A33.812 33.812 0 0 1 104.58 29.15Zm333.51 12.42-11.812 6.894a17.134 17.134 0 0 0-14.853-7.554c-7.553 0-11.406 3.7-11.406 7.96 0 4.257 6.083 6.082 15.664 8.211l.656.145.658.148c.33.075.66.15.991.229l.662.158c.221.053.442.108.663.163l.663.168.661.174c9.364 2.507 18.264 6.865 18.264 18.586 0 9.175-7.96 21.494-26.817 21.392a31.024 31.024 0 0 1-29.098-15.36l12.724-6.843a18.909 18.909 0 0 0 16.982 9.682c7.96 0 12.065-4.106 12.065-8.77s-7.705-6.489-16.07-8.212a151.41 151.41 0 0 1-.678-.145l-.679-.148-.34-.076-.678-.154c-10.504-2.427-20.588-6.518-20.588-19.247 0-10.494 10.138-20.278 25.65-20.278a30.416 30.416 0 0 1 26.716 12.876ZM293.31 0v96.925h-14.093V87.8a28.239 28.239 0 0 1-22.152 10.494 33.41 33.41 0 0 1-33.103-34.573A33.103 33.103 0 0 1 257.166 29.2a28.59 28.59 0 0 1 22.051 10.139V0h14.093ZM58.297 30.77v12.978L18.452 84.303h40.555v12.774H0V84.15l39.845-40.554H.912V30.771h57.385ZM464.399 0v63.468l29.858-33.052h17.135l-25.904 28.439L512 96.925h-15.867l-20.581-29.453-11.153 12.218v17.286h-14.092V0h14.092ZM182.09 29.2c16.73 0 30.822 10.898 30.822 28.945v38.78h-14.498V59.92c0-10.848-5.272-17.388-15.918-17.388a15.715 15.715 0 0 0-16.78 17.388v37.006H151.37v-38.78c0-18.047 13.99-28.946 30.72-28.946Zm76.902 13.534c-11.59 0-20.987 9.396-20.987 20.987 0 11.59 9.396 20.987 20.987 20.987 11.59 0 20.987-9.396 20.987-20.987 0-11.59-9.396-20.987-20.987-20.987Zm63.468 15.259 36.144.05c-.491-9.14-8.298-16.153-17.439-15.664-9.38-.55-17.57 6.287-18.705 15.614Zm-236.28 0 36.042.05c-.518-9.12-8.316-16.102-17.438-15.613-9.325-.498-17.448 6.297-18.605 15.563Z" fill="#03363D"/></svg>
